X: 3
T: Farewell, The
Z: Philip W
S: https://thesession.org/tunes/3214#setting23722
R: strathspey
M: 4/4
L: 1/8
K: Dmaj
F>G|"D"A3G "A"F3E "D"DFAd f3d|"A"eAef "Em"g2fg "A"e2EF  E2 FG|"D"A3G "A"F3E "D"3DFA 3dfa "G"g3fe|
"A"edcB Acde "D"f2d2 d2 FG|A3G "A" F2FE "D" DFAd f3d|"A"eAef "Em"g2fg "A"e2EF E2FG|
"D"A3G "A"F3E "D"3DFA 3dfa "G"g2fe|"A"edcB BAGF "D"A2D2 D2|
|f>g|"Bm"a3d f3a "D" dcde f3d|"Em"g3e"D" fagf "Em"e2E>F"A" E2 fg|"Bm"a2d2 fedc "A"edcB "G"BAGF|
"Em"GBAd"A" ceAg"D" f2d2 d2fg|"Bm"a3d f3c "D"d2D2 "Em"BAGF|"D/F#"A,DFA "G"GBcd "A"f3e e2 FG|
"D"A3G "A"F3E 3DFA "D"3dfa "G"Hg2 fe|"A"edcB BAGF"D" A2D2 D2|]
